src/assets/filled/Glass1.svg

<svg width="24" height="24" viewBox="0 0 24 24"  xmlns="http://www.w3.org/2000/svg">
<path d="M17.71 2H16.76C16.37 2 16.05 2.32 16.05 2.71C16.05 3.11 16.37 3.43 16.76 3.43H17.71C19.42 3.43 20.81 4.82 20.81 6.52V12.4C20.45 12.21 20.05 12.11 19.62 12.11H15.81C14.37 12.11 13.19 13.28 13.19 14.73V16.29H10.81V14.73C10.81 13.28 9.63001 12.11 8.19001 12.11H4.38001C3.95001 12.11 3.55001 12.21 3.19001 12.4V6.52C3.19001 4.82 4.58001 3.43 6.29001 3.43H7.24001C7.63001 3.43 7.95001 3.11 7.95001 2.71C7.95001 2.32 7.63001 2 7.24001 2H6.29001C3.79001 2 1.76001 4.03 1.76001 6.52V14.73V19.38C1.76001 20.83 2.94001 22 4.38001 22H8.19001C9.63001 22 10.81 20.83 10.81 19.38V17.71H13.19V19.38C13.19 20.83 14.37 22 15.81 22H19.62C21.06 22 22.24 20.83 22.24 19.38V14.73V6.52C22.24 4.03 20.21 2 17.71 2Z" />
</svg>

<?xml version="1.0" encoding="UTF-8"?>
<svg width="24" height="24" viewBox="0 0 24 24" xmlns="http://www.w3.org/2000/svg">
 <path d="m17.71 2h-0.95c-0.39 0-0.71 0.32-0.71 0.71 0 0.4 0.32 0.72 0.71 0.72h0.95c1.71 0 3.1 1.39 3.1 3.09v5.88c-0.36-0.19-0.76-0.29-1.19-0.29h-3.81c-1.44 0-2.62 1.17-2.62 2.62v1.56h-2.38v-1.56c0-1.45-1.18-2.62-2.62-2.62h-3.81c-0.43 0-0.83 0.1-1.19 0.29v-5.88c0-1.7 1.39-3.09 3.1-3.09h0.95c0.39 0 0.71-0.32 0.71-0.72 0-0.39-0.32-0.71-0.71-0.71h-0.95c-2.5 0-4.53 2.03-4.53 4.52v12.86c0 1.45 1.18 2.62 2.62 2.62h3.81c1.44 0 2.62-1.17 2.62-2.62v-1.67h2.38v1.67c0 1.45 1.18 2.62 2.62 2.62h3.81c1.44 0 2.62-1.17 2.62-2.62v-12.86c0-2.49-2.03-4.52-4.53-4.52z"/>
</svg>
